X:1
T:Holy Is the Lord!
T:Holy Is the Lord!
T:Scott Werdebaugh, 2018
T:Scott Werdebaugh, 2018
T:© 2018 by Scott Werdebaugh &amp; New Heart Music - May freely copy and use for Christian worship &amp; devotions with no alterations. All other rights reserved.
T:© 2018 by Scott Werdebaugh &amp; New Heart Music - May freely copy and use for Christian worship &amp; devotions with no alterations. All other rights reserved.
C:Scott Werdebaugh, 2018
Z:© 2018 by Scott Werdebaugh & New Heart Music - May freely copy and use for
Z:Christian worship & devotions with no alterations. All other rights reserved.
%%score 1 ( 2 3 )
L:1/8
Q:1/4=104
M:4/4
K:C
V:1 treble 
V:2 bass 
V:3 bass 
V:1
"^Worshipfully" [CE]2 [DF]2 [EG]2 [EG]2 | [FA]4 [FA]2 [FB]2 | ([FA]6 [EG]2) | [EG]6 z2 | %4
w: 1.~Ho- ly is the|LORD God Al-|might- *|y,|
w: 2.~Who can stand in|His ho- ly|pres- *|ence,|
w: 3.~On- ly One a-|lone was deemed|worth- *|y,|
 [FA]2 [FA]2 [DB]2 [Ec]2 | [Fc]3 [Fc] [DB]2 [FA]2 | [EG]6 [CE]2 | [B,D]6 z2 | %8
w: Un- cre- at- ed,|He cre- at- ed|all that|is;|
w: Awe- some pur- i-|ty and ut- ter|ho- li-|ness?|
w: On- ly He could|cov- er our sin|with His|blood!|
 [EG]2 [EG]2 [FA]2 [FB]2 | [Ec]6 [Ec]2 | [DB]4 [DG]2 [EG]2 | ([CA]2 [Ec]2) [DB]3 [Fc] | [Ec]6 z2 | %13
w: A- bove all, He|reigns a-|lone and for-|ev- * er He|lives.|
w: All who tru- ly|know God|trem- ble and|fall * be- fore|Him,|
w: We now en- ter|God’s Pres-|ence by Je-|sus’ * sa- cri-|fice,|
 [Ec]2 [DB]2 [CA]4 | ([FA]2 [FB]2) [Ec]4 | [Ec]2 [DB]2 [CA]2 [DB]2 | [Ec]6 z2 || %17
w: Sep- a- rate,|Per- * fect,|Pure, and True is|He!|
w: Yet His one|de- * sire|is our re- demp-|tion.|
w: Sal- va- tion|at * ho-|li- ness’ great \-|price!|
"^Refrain" [Ec]2 [DB]2 [FA]2 [EG]2 | ([DG]3 [DF]) [CE]2 z2 | [DF]2 [EG]2 [FA]2 [FB]2 | %20
w: |||
w: Ho- ly, ho- ly,|ho- * ly!|Ho- ly is the|
w: |||
 ([Ec]4 [DB]2) !breath!z [DB] x2 | ([Ec]2 [DB]2) [FA]2 [EG]2 | ([DG]3 [DF]) [CE]2 [EG]2 | %23
w: |||
w: LORD! * The|whole * earth is|full * of His|
w: |||
 ([FA]4 [Ec]4) | ([Fc]4 [GB]3) !breath!z | [Ec]4 [Ec]2 [DB]2 | [FA]4 [DA]4 | %27
w: ||||
w: glo- *|ry. *|Give to the|LORD the|
w: ||||
 [DG]3 [DA] [DG]2 [B,F][DF] | [EG]6 z2 | [FA]4 [FB]2 [FB]2 | [Ec]4 [EG]2 [EG]2 | %31
w: ||||
w: glo- ry due to His|name;|Wor- ship the|LORD in the|
w: ||||
 [FA]4 [DB]2 [Ec]2 | ([Fd]3 [Ec]) [DB]3 [Ec] | [Ec]6 z2 | [Ec]4 [Ec]2 [DB]2 | [CA]6 [DB]2 | %36
w: |||||
w: beau- ty of|His * ho- li-|ness,|Sing prais- es|to the|
w: |||||
 [Ec]3 !breath!z [EG]2 [FA]2 | [DB]2 [Ec]2 ([Fd]3 [Ec]) | [DB]6 [Fc]2 | [Ec]6 z2 |] %40
w: ||||
w: LORD, and give|thanks to His *|ho- ly|name!|
w: ||||
V:2
 [C,G,]2 [G,B,]2 [C,C]2 [C,C]2 | [F,C]4 [F,C]2 [G,D]2 | C8 | [C,C]6 z2 | %4
 [F,C]2 [F,C]2 [G,,G,]2 [C,G,]2 | [F,A,]3 [F,A,] [G,,G,]2 [F,,C]2 | [C,C]6 [C,G,]2 | [G,,G,]6 z2 | %8
 [C,C]2 [C,C]2 [F,C]2 [G,D]2 | [C,G,]6 [C,G,]2 | [G,,G,]4 [G,,B,]2 [C,C]2 | %11
 ([F,,F,]2 [C,G,]2) [G,,G,]3 [F,,A,] | [C,G,]6 z2 | [C,G,]2 [G,,G,]2 [F,,F,]4 | %14
 ([C,F,]2 [D,G,]2) [C,G,]4 | [C,G,]2 [G,,G,]2 [F,,F,]2 [G,,G,]2 | [C,G,]6 z2 || %17
 [C,G,]2 [G,,G,]2 [F,C]2 [C,C]2 | [G,B,]4 [C,G,]2 z2 | [G,B,]2 [C,C]2 [F,C]2 [G,D]2 | %20
 G,6 G,,2 !breath!z [G,,G,] | G,4 [F,,C]2 [C,C]2 | [G,B,]4 [C,G,]2 [C,C]2 | ([F,C]4 [C,G,]4) | %24
 ([F,A,]4 [G,D]3) !breath!z | [C,G,]4 [C,G,]2 [G,,G,]2 | [F,,C]4 [F,,A,]4 | %27
 [G,,B,]3 [F,,A,] [G,,B,]2 [G,,G,][B,,G,] | [C,C]6 z2 | [F,C]4 [G,D]2 [G,D]2 | %30
 [C,G,]4 [C,C]2 [C,C]2 | [F,C]4 G,4 | ([G,B,]3 [C,G,]) [G,,G,]3 [C,G,] | [C,G,]6 z2 | %34
 [C,G,]4 [C,G,]2 [G,,G,]2 | [F,,F,]6 [G,,G,]2 | [C,G,]3 !breath!z [C,C]2 [F,C]2 | %37
 G,4 ([G,,B,]3 [C,G,]) | [G,,G,]6 [C,A,]2 | [C,G,]6 z2 |] %40
V:3
 x8 | x8 | (F,6 C,2) | x8 | x8 | x8 | x8 | x8 | x8 | x8 | x8 | x8 | x8 | x8 | x8 | x8 | x8 || x8 | %18
 x8 | x8 | C,4 x6 | (C,2 G,,2) x4 | x8 | x8 | x8 | x8 | x8 | x8 | x8 | x8 | x8 | x4 G,,2 C,2 | x8 | %33
 x8 | x8 | x8 | x8 | G,,2 C,2 x4 | x8 | x8 |] %40

